X: 1258
T: Kimseyi Dil Teng-i Âzâr Etme
C: Mehmet Çelebi (Küçük Müezzin)
O: Turkey
F: http://compmusic.upf.edu/node/140
N: sehnazbuselik--agirsemai--aksaksemai--kimseyi_dil--kucuk_muezzin_mehmet_celebi
N: makam= sehnazbuselik
N: form= agirsemai
N: usul= aksaksemai = 10/8
M: 10/8
L: 1/16
K: C    
Q: 1/4=132
%%MIDI tuningsystem comma53
a4 ^g2^1/4f2 e2f2 g2a6  | ^1/4f2e2 d2c2 B2cd ef^g4a2  | \
w:  Ah  *  Ki  *  kim se yi   |  di  *  *  *  *  dil   | 
d'2c'2 b2a3^ga2 c'2b6  | 
w:  teng_ *  *  *  *  *  *  i   | 
c'2b2 a2^g3^1/4fe2 d2c2 B2A2  | c4 BdcB c2e4^de ^1/4f^ga2  | 
w:  â *  *  *  *  zâr   |  e  *  *  *  *  *  et me   | 
^g4 ^1/4f2e2 c'2ba gfed cBc2  | B2c2 d2e4ba ^g^1/4fgf e2z2  | 
w:  sul *  *  *  tan  |  lık  *  *  *  bu *  *  *  dur   | 
e2f2 a2gf eded cBc4z2  | A2^G2 A2B2 cd^gf eded c2z2  | 
w:  bu *  *  *  *  *  *  dur    |  Tâ  *  *  nâ  *  *  dir  *  *  *  dir   | 
d2e2 ^1/4f2^ga b2c'b agfg a2z2  | \
w:  te  *  ne  nen  *  *  ni  *  *  *  te  ne  nen    | 
^g2a2 b2d'2 c'bag ^1/4fga4z2  | 
w:  Düm  *  *  *  *  *  de  *  rel  *  lâ  | 
b2a2 ^g2^1/4f2 e2f4a2 gfe2  | z2e2 d2cB c4 BA^GA B4  | 
w:  dir  *  *  dir  *  ten  ter  dil  *  li    |  Ter  *  dil  *  li  ten  *  dil  li  ten   | 
z2g2 f2ed c2Bc Bcd4e2  | z2c2 B2cB A^GAB cde4d2  | 
w:  der  *  de  *  re  dil  *  *  *  li   |  de  re  dil  *  *  *  li   | 
c4 B2B3AcB A^GA4z2  | a4 ^g2^1/4f2 e2f2 g2a6  | \
w:  ney  *  *  *  *  *  *  *  vay    |  Ah  *  Ki  *  kim se yi   | 
^1/4f2e2 d2c2 B2cd ef^g4a2  | 
w:  di  *  *  *  *  dil   | 
d'2c'2 b2a3^ga2 c'2b6  | c'2b2 a2^g3^1/4fe2 d2c2 B2A2  | \
w:  teng_ *  *  *  *  *  *  i   |  â *  *  *  *  zâr   | 
c4 BdcB c2e4^de ^1/4f^ga2  | 
w:  e  *  *  *  *  *  et me   | 
^g4 ^1/4f2e2 c'2ba gfed cBc2  | B2c2 d2e4ba ^g^1/4fgf e2z2  | 
w:  sul *  *  *  tan  |  lık  *  *  *  bu *  *  *  dur   | 
e2f2 a2gf eded cBc4z2  | A2^G2 A2B2 cd^gf eded c2z2  | 
w:  bu *  *  *  *  *  *  dur    |  Tâ  *  *  nâ  *  *  dir  *  *  *  dir   | 
d2e2 ^1/4f2^ga b2c'b agfg a2z2  | \
w:  te  *  ne  nen  *  *  ni  *  *  *  te  ne  nen    | 
^g2a2 b2d'2 c'bag ^1/4fga4z2  | 
w:  Düm  *  *  *  *  *  de  *  rel  *  lâ  | 
b2a2 ^g2^1/4f2 e2f4a2 gfe2  | z2e2 d2cB c4 BA^GA B4  | 
w:  dir  *  *  dir  *  ten  ter  dil  *  li    |  Ter  *  dil  *  li  ten  *  dil  li  ten   | 
z2g2 f2ed c2Bc Bcd4e2  | z2c2 B2cB A^GAB cde4d2  | 
w:  der  *  de  *  re  dil  *  *  *  li   |  de  re  dil  *  *  *  li   | 
c4 B2B3AcB A^GA4z2  | A4 ^G2^1/4FG A2B2 c2cB A2z2  | 
w:  ney  *  *  *  *  *  *  *  vay    |  Ah  *  Ger  *  *  ger *  çi   | 
e4 d2cB c2d2 e2gf e2z2  | e2^1/4f2 ^g2g2 b2c'b agfg a2z2  | 
w:  her  *  *  *  *  bir   |  der *  *  *  *  de   | 
g2^f2 efed cBc2 d2cB c2z2  | g4 fga2 b2a2 gfgf e2z2  | 
w:  var *  *  *  *  *  *  *  dır   |  bir   | 
e2a2 gfed cBc2 d2e4z2  | e2d2 cBc4cB A^G^1/4FG A2z2  | 
w:  ta *  *  *  *  *  *  *  bîb_ *  i   |  ça *  *  *  *  *  *  *  *  re   | 
e2a2 gfed cBA2 ^G2A4z2  | A2^G2 A2B2 cd^gf eded c2z2  | 
w:  ça *  re *  *  *  saz    |  Tâ  *  *  nâ  *  *  dir  *  *  *  dir   | 
d2e2 ^1/4f2^ga b2c'b agfg a2z2  | \
w:  te  *  ne  nen  *  *  ni  *  *  *  te  ne  nen    | 
^g2a2 b2d'2 c'bag ^1/4fga4z2  | 
w:  Düm  *  *  *  *  *  de  *  rel  *  lâ  | 
b2a2 ^g2^1/4f2 e2f4a2 gfe2  | z2e2 d2cB c4 BA^GA B4  | 
w:  dir  *  *  dir  *  ten  ter  dil  *  li    |  Ter  *  dil  *  li  ten  *  dil  li  ten   | 
z2g2 f2ed c2Bc Bcd4e2  | z2c2 B2cB A^GAB cde4d2  | 
w:  der  *  de  *  re  dil  *  *  *  li   |  de  re  dil  *  *  *  li   | 
c4 B2B3AcB A^GA4z2  | a4 ^g2^1/4f2 e2f2 g2a6  | \
w:  ney  *  *  *  *  *  *  *  vay    |  Ah  *  Fe  *  feyz  gi  gir_  | 
^1/4f2e2 d2c2 B2cd ef^g4a2  | 
w:  i  *  *  *  *  kal   | 
d'2c'2 b2a3^ga2 c'2b6  | c'2b2 a2^g3^1/4fe2 d2c2 B2A2  | \
w:  kal *  *  *  *  *  *  bi   |  mah *  *  *  *  zun   | 
c4 BdcB c2e4^de ^1/4f^ga2  | 
w:  o  *  *  *  *  *  ol  ki   | 
^g4 ^1/4f2e2 c'2ba gfed cBc2  | B2c2 d2e4ba ^g^1/4fgf e2z2  | 
w:  lok *  *  *  man  |  lık  *  *  *  bu *  *  *  dur   | 
e2f2 a2gf eded cBc4z2  | A2^G2 A2B2 cd^gf eded c2z2  | 
w:  bu *  *  *  *  *  *  dur    |  Tâ  *  *  nâ  *  *  dir  *  *  *  dir   | 
d2e2 ^1/4f2^ga b2c'b agfg a2z2  | \
w:  te  *  ne  nen  *  *  ni  *  *  *  te  ne  nen    | 
^g2a2 b2d'2 c'bag ^1/4fga4z2  | 
w:  Düm  *  *  *  *  *  de  *  rel  *  lâ  | 
b2a2 ^g2^1/4f2 e2f4a2 gfe2  | z2e2 d2cB c4 BA^GA B4  | 
w:  dir  *  *  dir  *  ten  ter  dil  *  li    |  Ter  *  dil  *  li  ten  *  dil  li  ten   | 
z2g2 f2ed c2Bc Bcd4e2  | z2c2 B2cB A^GAB cde4d2  | 
w:  der  *  de  *  re  dil  *  *  *  li   |  de  re  dil  *  *  *  li   | 
c4 B2B3AcB A^GA4z2  | |


